src/components/00-materials/images-raw/Organization.svg

<svg width="96" height="96" viewBox="0 0 96 96" fill="none" xmlns="http://www.w3.org/2000/svg">
<circle cx="18.4141" cy="72.4284" r="12.5714" stroke="#00008F" stroke-width="2"/>
<circle cx="48.3772" cy="72.4284" r="12.5714" stroke="#00008F" stroke-width="2"/>
<path d="M48.4456 63.5418C47.8898 63.5283 47.3425 63.68 46.8729 63.9777C46.4034 64.2753 46.0327 64.7056 45.8078 65.2141C45.5829 65.7225 45.514 66.2862 45.6096 66.8339C45.7053 67.3816 45.9612 67.8885 46.3452 68.2907C46.7291 68.6928 47.2236 68.9719 47.7663 69.0928C48.3089 69.2137 48.8753 69.1709 49.3936 68.9698C49.9119 68.7687 50.3589 68.4183 50.6779 67.9631C50.997 67.5078 51.1739 66.9681 51.1861 66.4123C51.2024 65.6685 50.9231 64.9485 50.4093 64.4104C49.8956 63.8723 49.1894 63.5599 48.4456 63.5418Z" stroke="#00008F" stroke-width="2" stroke-miterlimit="10"/>
<path d="M44.4415 74.1071C44.778 72.775 45.9763 71.8418 47.3502 71.8418H49.4048C50.7786 71.8418 51.9769 72.775 52.3134 74.1071L53.6921 79.565L43.0629 79.565L44.4415 74.1071Z" stroke="#00008F" stroke-width="2"/>
<path d="M44.4415 74.1071C44.778 72.775 45.9763 71.8418 47.3502 71.8418H49.4048C50.7786 71.8418 51.9769 72.775 52.3134 74.1071L53.6921 79.565L43.0629 79.565L44.4415 74.1071Z" stroke="#00008F" stroke-width="2"/>
<circle cx="77.5854" cy="72.4284" r="12.5714" stroke="#00008F" stroke-width="2"/>
<path d="M77.6538 63.5418C77.098 63.5283 76.5507 63.68 76.0811 63.9777C75.6116 64.2753 75.2409 64.7056 75.016 65.2141C74.7911 65.7225 74.7221 66.2862 74.8178 66.8339C74.9134 67.3816 75.1694 67.8885 75.5533 68.2907C75.9372 68.6928 76.4318 68.9719 76.9745 69.0928C77.5171 69.2137 78.0834 69.1709 78.6017 68.9698C79.12 68.7687 79.567 68.4183 79.8861 67.9631C80.2052 67.5078 80.382 66.9681 80.3943 66.4123C80.4106 65.6685 80.1313 64.9485 79.6175 64.4104C79.1037 63.8723 78.3975 63.5599 77.6538 63.5418Z" stroke="#00008F" stroke-width="2" stroke-miterlimit="10"/>
<path d="M73.6492 74.1071C73.9857 72.775 75.184 71.8418 76.5579 71.8418H78.6125C79.9864 71.8418 81.1847 72.775 81.5211 74.1071L82.8998 79.565L72.2706 79.565L73.6492 74.1071Z" stroke="#00008F" stroke-width="2"/>
<circle cx="48.3772" cy="23.5714" r="12.5714" stroke="#00008F" stroke-width="2"/>
<path d="M48.4456 14.5604C47.8898 14.5469 47.3425 14.6986 46.8729 14.9962C46.4034 15.2939 46.0327 15.7242 45.8078 16.2326C45.5829 16.7411 45.514 17.3048 45.6096 17.8525C45.7053 18.4001 45.9612 18.9071 46.3452 19.3092C46.7291 19.7113 47.2236 19.9905 47.7663 20.1114C48.3089 20.2323 48.8753 20.1895 49.3936 19.9884C49.9119 19.7872 50.3589 19.4369 50.6779 18.9816C50.997 18.5263 51.1739 17.9866 51.1861 17.4308C51.2024 16.687 50.9231 15.9671 50.4093 15.429C49.8956 14.8909 49.1894 14.5785 48.4456 14.5604Z" stroke="#00008F" stroke-width="2" stroke-miterlimit="10"/>
<path d="M44.4415 25.1251C44.778 23.7931 45.9763 22.8599 47.3502 22.8599H49.4048C50.7786 22.8599 51.9769 23.7931 52.3134 25.1251L53.6921 30.583H43.0629L44.4415 25.1251Z" stroke="#00008F" stroke-width="2"/>
<path d="M18.4824 63.5418C17.9266 63.5283 17.3793 63.68 16.9098 63.9777C16.4402 64.2753 16.0696 64.7056 15.8447 65.2141C15.6198 65.7225 15.5508 66.2862 15.6464 66.8339C15.7421 67.3816 15.9981 67.8885 16.382 68.2907C16.7659 68.6928 17.2605 68.9719 17.8031 69.0928C18.3458 69.2137 18.9121 69.1709 19.4304 68.9698C19.9487 68.7687 20.3957 68.4183 20.7148 67.9631C21.0339 67.5078 21.2107 66.9681 21.2229 66.4123C21.2393 65.6685 20.9599 64.9485 20.4462 64.4104C19.9324 63.8723 19.2262 63.5599 18.4824 63.5418Z" stroke="#00008F" stroke-width="2" stroke-miterlimit="10"/>
<path d="M14.4779 74.1071C14.8144 72.775 16.0127 71.8418 17.3865 71.8418H19.4412C20.815 71.8418 22.0133 72.775 22.3498 74.1071L23.7285 79.565L13.0992 79.565L14.4779 74.1071Z" stroke="#00008F" stroke-width="2"/>
<path d="M18.5 59.5V51H48M48 51V36.5M48 51V59.5M48 51H77.5V59.5" stroke="#00008F" stroke-width="2"/>
</svg>

<svg width="96" height="96" viewBox="0 0 96 96" fill="none" xmlns="http://www.w3.org/2000/svg"><circle cx="18.414" cy="72.428" r="12.571" stroke="#00008F" stroke-width="2"/><circle cx="48.377" cy="72.428" r="12.571" stroke="#00008F" stroke-width="2"/><path d="M48.446 63.542a2.81 2.81 0 10-.137 5.618 2.81 2.81 0 00.137-5.618z" stroke="#00008F" stroke-width="2" stroke-miterlimit="10"/><path d="M44.441 74.107a3 3 0 012.91-2.265h2.054a3 3 0 012.908 2.265l1.38 5.458h-10.63l1.378-5.458z" stroke="#00008F" stroke-width="2"/><path d="M44.441 74.107a3 3 0 012.91-2.265h2.054a3 3 0 012.908 2.265l1.38 5.458h-10.63l1.378-5.458z" stroke="#00008F" stroke-width="2"/><circle cx="77.585" cy="72.428" r="12.571" stroke="#00008F" stroke-width="2"/><path d="M77.654 63.542a2.81 2.81 0 10-.137 5.618 2.81 2.81 0 00.137-5.618z" stroke="#00008F" stroke-width="2" stroke-miterlimit="10"/><path d="M73.65 74.107a3 3 0 012.908-2.265h2.054a3 3 0 012.91 2.265l1.378 5.458H72.27l1.38-5.458z" stroke="#00008F" stroke-width="2"/><circle cx="48.377" cy="23.571" r="12.571" stroke="#00008F" stroke-width="2"/><path d="M48.446 14.56a2.81 2.81 0 10-.137 5.62 2.81 2.81 0 00.137-5.62z" stroke="#00008F" stroke-width="2" stroke-miterlimit="10"/><path d="M44.441 25.125a3 3 0 012.91-2.265h2.054a3 3 0 012.908 2.265l1.38 5.458h-10.63l1.378-5.458z" stroke="#00008F" stroke-width="2"/><path d="M18.482 63.542a2.81 2.81 0 10-.136 5.617 2.81 2.81 0 00.136-5.617z" stroke="#00008F" stroke-width="2" stroke-miterlimit="10"/><path d="M14.478 74.107a3 3 0 012.909-2.265h2.054a3 3 0 012.909 2.265l1.378 5.458H13.1l1.379-5.458zM18.5 59.5V51H48m0 0V36.5M48 51v8.5m0-8.5h29.5v8.5" stroke="#00008F" stroke-width="2"/></svg>
